X:154
T:The Sailor's Way
M:6/8
L:1/8
K:F
C|\
F2A c2=3DB|B2c F3 |F2A c2c|B3 z2z|
d2d e2d |d2c e2d|d2c G2c|A3 z2c|
c2c d2c |AcA F2C|C<FA/A/ c2=3DB|B3 zcc|
d2d e2d |d2c e2d|c2c B2G|F3 zAB|
c3  d2c |A3  F2C|F2A c2c|B3 z2z|
d2d e2d |d2c edd|c2c B2G|F3 z2 ||
